X:35
T:London March
N:page 21 on manuscript
M:C
L:1/8
K:F
A2 A>A A2 G2 | F>A c>f d2 c2 | d>fc>f B>fA>f | G>FG>A G2 G>G | A2 A>A A2 G2 | F>A c>f d2 c2 |
d>fc>f B>ef>b | a2 Tg>f f4 H|] c>BA>B c>cB>A | G>AB>G A2 G2 | F>FF>G A>AA>B |
c>cB>A A2 G2 | c>BA>B c>cB>A | G>AB>G | A2 G2 | F>FF>G A>AA>B | c>cB>A A2 G>G +D.C.+ |]

